images/ic_add_user.svg

<svg width="18" height="18" viewBox="0 0 18 18" fill="none" xmlns="http://www.w3.org/2000/svg">
<path d="M12.9228 9.03196C12.5769 8.86753 12.224 8.72589 11.8649 8.60723C13.028 7.73423 13.7817 6.34412 13.7817 4.78125C13.7817 2.14488 11.6369 0 9.00047 0C6.36407 0 4.21922 2.14488 4.21922 4.78125C4.21922 6.34584 4.97466 7.73733 6.13991 8.61015C5.07229 8.96164 4.07051 9.50857 3.19371 10.2298C1.58595 11.5522 0.468088 13.3969 0.0461075 15.4239C-0.0861502 16.059 0.0722989 16.7113 0.480744 17.2136C0.887185 17.7134 1.48987 18 2.13421 18H10.7934C11.1818 18 11.4966 17.6852 11.4966 17.2969C11.4966 16.9085 11.1818 16.5938 10.7934 16.5938H2.13421C1.83405 16.5938 1.65296 16.4262 1.57175 16.3264C1.43151 16.1539 1.37723 15.9294 1.42283 15.7104C2.15249 12.2055 5.24399 9.64526 8.81407 9.55891C8.87591 9.56131 8.93803 9.5625 9.00047 9.5625C9.0635 9.5625 9.12626 9.56127 9.18869 9.55884C10.2828 9.58451 11.335 9.83419 12.3191 10.302C12.6699 10.4687 13.0893 10.3196 13.256 9.96884C13.4227 9.61812 13.2736 9.19867 12.9228 9.03196ZM9.17196 8.15193C9.1149 8.15091 9.05774 8.15038 9.00047 8.15038C8.94373 8.15038 8.88698 8.15094 8.83031 8.152C7.04807 8.06309 5.62547 6.58519 5.62547 4.78125C5.62547 2.92025 7.13947 1.40625 9.00047 1.40625C10.8615 1.40625 12.3755 2.92025 12.3755 4.78125C12.3755 6.58473 10.9536 8.06235 9.17196 8.15193Z" fill="white"/>
<path d="M17.2969 13.957H15.3633V12.0234C15.3633 11.6351 15.0485 11.3203 14.6602 11.3203C14.2718 11.3203 13.957 11.6351 13.957 12.0234V13.957H12.0234C11.6351 13.957 11.3203 14.2718 11.3203 14.6602C11.3203 15.0485 11.6351 15.3633 12.0234 15.3633H13.957V17.2969C13.957 17.6852 14.2718 18 14.6602 18C15.0485 18 15.3633 17.6852 15.3633 17.2969V15.3633H17.2969C17.6852 15.3633 18 15.0485 18 14.6602C18 14.2718 17.6852 13.957 17.2969 13.957Z" fill="white"/>
</svg>

<svg xmlns="http://www.w3.org/2000/svg" viewBox="0 0 18 18" fill="#fff"><path d="M12.923 9.032a9.15 9.15 0 0 0-1.058-.425c1.163-.873 1.917-2.263 1.917-3.826A4.79 4.79 0 0 0 9.001 0 4.79 4.79 0 0 0 4.22 4.781a4.78 4.78 0 0 0 1.92 3.83 9.08 9.08 0 0 0-2.946 1.62C1.586 11.552.468 13.397.046 15.424c-.132.635.026 1.287.435 1.8A2.12 2.12 0 0 0 2.135 18h8.66c.388 0 .703-.315.703-.703s-.315-.703-.703-.703h-8.66c-.3 0-.48-.168-.562-.267a.74.74 0 0 1-.15-.616A7.77 7.77 0 0 1 8.814 9.56L9 9.562l.188-.004a7.66 7.66 0 0 1 3.13.743c.35.167.77.018.937-.333s.018-.77-.333-.937zm-3.75-.88L9 8.15l-.17.002a3.38 3.38 0 0 1-3.205-3.371A3.38 3.38 0 0 1 9 1.406a3.38 3.38 0 0 1 3.375 3.375 3.38 3.38 0 0 1-3.203 3.371zm8.124 5.805h-1.934v-1.934c0-.388-.315-.703-.703-.703s-.703.315-.703.703v1.934h-1.934c-.388 0-.703.315-.703.703s.315.703.703.703h1.934v1.934c0 .388.315.703.703.703s.703-.315.703-.703v-1.934h1.934c.388 0 .703-.315.703-.703s-.315-.703-.703-.703z"/></svg>
